; HEADER_BLOCK_START
; generated by OrcaSlicer 1.6.3 on 2023-07-11 at 19:15:28
; total layer number: 10
; HEADER_BLOCK_END

; THUMBNAIL_BLOCK_START
; THUMBNAIL_BLOCK_END

; external perimeters extrusion width = 0.72mm
; perimeters extrusion width = 0.72mm
; infill extrusion width = 0.90mm
; solid infill extrusion width = 0.90mm
; top infill extrusion width = 0.50mm
; first layer extrusion width = 0.90mm

; EXECUTABLE_BLOCK_START
EXCLUDE_OBJECT_DEFINE NAME=Cube_id_0_copy_0 CENTER=170,180 POLYGON=[[134.645,180],[170,144.645],[205.355,180],[170,215.355],[134.645,180]]
M73 P0 R8
;TYPE:Custom
PRINT_START EXTRUDER=260 BED=100
G90
G21
M83 ; use relative distances for extrusion
; Filament gcode
SET_PRESSURE_ADVANCE ADVANCE=0.04; Override pressure advance value
M106 S0
;LAYER_CHANGE
;Z:0.3
;HEIGHT:0.3
;BEFORE_LAYER_CHANGE
;0.3
G92 E0

;AFTER_LAYER_CHANGE
;0.3
M204 S500
SET_VELOCITY_LIMIT SQUARE_CORNER_VELOCITY=5
G1 E-.7 F1800
G1 Z.2 F13500
G1 X154.726 Y154.726 F27000
M73 P0 R7
G1 Z.3 F13500
G1 E.7 F1800
;TYPE:Skirt
;WIDTH:0.9
G1 F2400
G1 X167.404 Y142.049 E1.84974
G1 X168.854 Y141.157 E.1756
G1 X170.55 Y141.015 E.1756
G1 X172.596 Y142.049 E.23651
G1 X207.951 Y177.404 E5.15852
G1 X208.843 Y178.854 E.1756
G1 X208.985 Y180.55 E.1756
G1 X207.951 Y182.596 E.23651
G1 X172.596 Y217.951 E5.15852
M73 P1 R7
G1 X171.146 Y218.843 E.1756
G1 X169.45 Y218.985 E.1756
G1 X167.404 Y217.951 E.23651
G1 X132.049 Y182.596 E5.15852
G1 X131.157 Y181.146 E.1756
G1 X131.015 Y179.45 E.1756
G1 X132.049 Y177.404 E.23651
G1 X154.663 Y154.79 E3.2995
G1 X155.254 Y155.381 F13500
G1 F2400
G1 X167.995 Y142.64 E1.85902
G1 X169.291 Y141.899 E.15401
G1 X170.784 Y141.92 E.15401
G1 X172.005 Y142.64 E.14627
G1 X207.36 Y177.995 E5.15852
G1 X208.101 Y179.291 E.15401
M73 P2 R7
G1 X208.08 Y180.784 E.15401
G1 X207.36 Y182.005 E.14627
G1 X172.005 Y217.36 E5.15852
G1 X170.709 Y218.101 E.15401
G1 X169.216 Y218.08 E.15401
G1 X167.995 Y217.36 E.14627
G1 X132.64 Y182.005 E5.15852
G1 X131.899 Y180.709 E.15401
G1 X131.92 Y179.216 E.15401
G1 X132.64 Y177.995 E.14627
G1 X155.19 Y155.445 E3.29021
; printing object Cube id:0 copy 0
EXCLUDE_OBJECT_START NAME=Cube_id_0_copy_0
G1 E-.49 F1800
;WIPE_START
G1 F2400
G1 X156.604 Y154.03 E-.1995
;WIPE_END
G1 E-.0105 F1800
G1 Z.5 F13500
G1 X170 Y147.857
G1 Z.3
G1 E.7 F1800
;TYPE:Inner wall
;WIDTH:0.899999
G1 F2400
G1 X202.143 Y180 E4.68987
M73 P3 R7
G1 X170 Y212.143 E4.68987
G1 X137.857 Y180 E4.68987
G1 X153.928 Y163.928 E2.34493
G1 X169.936 Y147.92 E2.33565
G1 E-.7 F1800
G1 Z.5 F13500
G1 X170 Y146.675
G1 Z.3
G1 E.7 F1800
M73 P4 R7
G1 F2400
G1 X203.325 Y180 E4.86229
G1 X170 Y213.325 E4.86229
G1 X136.675 Y180 E4.86229
G1 X153.337 Y163.337 E2.43115
G1 X169.936 Y146.739 E2.42186
M73 P5 R7
G1 E-.7 F1800
G1 Z.5 F13500
G1 X170 Y145.493
G1 Z.3
G1 E.7 F1800
;TYPE:Outer wall
G1 F2400
G1 X204.507 Y180 E5.03471
G1 X170 Y214.507 E5.03471
G1 X135.493 Y180 E5.03471
G1 X152.747 Y162.747 E2.51736
M73 P6 R7
G1 X169.936 Y145.557 E2.50807
G1 X170.031 Y145.609
G1 E-.7 F1800
G1 Z.5 F13500
G1 X169.729 Y148.482
G1 Z.3
G1 E.7 F1800
;TYPE:Bottom surface
;WIDTH:0.914187
G1 F3000
G1 X201.252 Y180.005 E4.67744
G1 X200.651 Y180.606 E.08916
G1 X169.394 Y149.349 E4.63798
G1 X168.793 Y149.95 E.08916
G1 X200.05 Y181.207 E4.63798
G1 X199.449 Y181.808 E.08916
G1 X168.192 Y150.551 E4.63798
M73 P7 R7
G1 X167.591 Y151.152 E.08916
G1 X198.848 Y182.409 E4.63798
G1 X198.247 Y183.01 E.08916
G1 X166.99 Y151.753 E4.63798
G1 X166.39 Y152.353 E.08916
G1 X197.647 Y183.61 E4.63798
G1 X197.046 Y184.211 E.08916
G1 X165.789 Y152.954 E4.63798
G1 X165.188 Y153.555 E.08916
G1 X196.445 Y184.812 E4.63798
M73 P8 R7
G1 X195.844 Y185.413 E.08916
G1 X164.587 Y154.156 E4.63798
G1 X163.986 Y154.757 E.08916
G1 X195.243 Y186.014 E4.63798
G1 X194.642 Y186.615 E.08916
G1 X163.385 Y155.358 E4.63798
G1 X162.784 Y155.959 E.08916
G1 X194.041 Y187.216 E4.63798
M73 P9 R7
G1 X193.44 Y187.817 E.08916
G1 X162.183 Y156.56 E4.63798
G1 X161.582 Y157.161 E.08916
G1 X192.839 Y188.418 E4.63798
G1 X192.238 Y189.019 E.08916
G1 X160.981 Y157.762 E4.63798
G1 X160.38 Y158.362 E.08916
G1 X191.638 Y189.62 E4.63798
G1 X191.037 Y190.22 E.08916
G1 X159.78 Y158.963 E4.63798
M73 P10 R7
G1 X159.179 Y159.564 E.08916
G1 X190.436 Y190.821 E4.63798
G1 X189.835 Y191.422 E.08916
G1 X158.578 Y160.165 E4.63798
G1 X157.977 Y160.766 E.08916
G1 X189.234 Y192.023 E4.63798
G1 X188.633 Y192.624 E.08916
G1 X157.376 Y161.367 E4.63798
G1 X156.775 Y161.968 E.08916
M73 P11 R7
G1 X188.032 Y193.225 E4.63798
G1 X187.431 Y193.826 E.08916
G1 X156.174 Y162.569 E4.63798
G1 X155.573 Y163.17 E.08916
G1 X186.83 Y194.427 E4.63798
G1 X186.229 Y195.028 E.08916
G1 X154.972 Y163.771 E4.63798
G1 X154.371 Y164.372 E.08916
G1 X185.628 Y195.629 E4.63798
M73 P12 R7
G1 X185.028 Y196.229 E.08916
G1 X153.771 Y164.972 E4.63798
G1 X153.17 Y165.573 E.08916
G1 X184.427 Y196.83 E4.63798
G1 X183.826 Y197.431 E.08916
G1 X152.569 Y166.174 E4.63798
M73 P12 R6
G1 X151.968 Y166.775 E.08916
G1 X183.225 Y198.032 E4.63798
G1 X182.624 Y198.633 E.08916
G1 X151.367 Y167.376 E4.63798
M73 P13 R6
G1 X150.766 Y167.977 E.08916
G1 X182.023 Y199.234 E4.63798
G1 X181.422 Y199.835 E.08916
G1 X150.165 Y168.578 E4.63798
G1 X149.564 Y169.179 E.08916
G1 X180.821 Y200.436 E4.63798
G1 X180.22 Y201.037 E.08916
G1 X148.963 Y169.78 E4.63798
M73 P14 R6
G1 X148.362 Y170.381 E.08916
G1 X179.619 Y201.638 E4.63798
G1 X179.019 Y202.238 E.08916
G1 X147.762 Y170.981 E4.63798
G1 X147.161 Y171.582 E.08916
G1 X178.418 Y202.839 E4.63798
G1 X177.817 Y203.44 E.08916
G1 X146.56 Y172.183 E4.63798
G1 X145.959 Y172.784 E.08916
G1 X177.216 Y204.041 E4.63798
M73 P15 R6
G1 X176.615 Y204.642 E.08916
G1 X145.358 Y173.385 E4.63798
G1 X144.757 Y173.986 E.08916
G1 X176.014 Y205.243 E4.63798
G1 X175.413 Y205.844 E.08916
G1 X144.156 Y174.587 E4.63798
G1 X143.555 Y175.188 E.08916
G1 X174.812 Y206.445 E4.63798
G1 X174.211 Y207.046 E.08916
G1 X142.954 Y175.789 E4.63798
M73 P16 R6
G1 X142.353 Y176.39 E.08916
G1 X173.61 Y207.647 E4.63798
G1 X173.01 Y208.248 E.08916
G1 X141.752 Y176.99 E4.63798
G1 X141.152 Y177.591 E.08916
G1 X172.409 Y208.848 E4.63798
G1 X171.808 Y209.449 E.08916
G1 X140.551 Y178.192 E4.63798
M73 P17 R6
G1 X139.95 Y178.793 E.08916
G1 X171.207 Y210.05 E4.63798
G1 X170.606 Y210.651 E.08916
G1 X139.349 Y179.394 E4.63798
G1 X138.748 Y179.995 E.08916
G1 X170.271 Y211.518 E4.67744
; stop printing object Cube id:0 copy 0
EXCLUDE_OBJECT_END NAME=Cube_id_0_copy_0
M106 S153
;LAYER_CHANGE
;Z:0.6
;HEIGHT:0.3
;BEFORE_LAYER_CHANGE
;0.6
G92 E0

;AFTER_LAYER_CHANGE
;0.6
M204 S4000
SET_VELOCITY_LIMIT SQUARE_CORNER_VELOCITY=1
; printing object Cube id:0 copy 0
EXCLUDE_OBJECT_START NAME=Cube_id_0_copy_0
M204 S10000
SET_VELOCITY_LIMIT SQUARE_CORNER_VELOCITY=5
G1 E-.7 F1800
G1 Z.5 F27000
G1 X170 Y147.008 Z.6
G1 E.7 F1800
M204 S2000
SET_VELOCITY_LIMIT SQUARE_CORNER_VELOCITY=1
;TYPE:Inner wall
;WIDTH:0.72
G1 F7626.381
G1 X202.992 Y180 E3.77676
G1 X170 Y212.992 E3.77676
G1 X137.008 Y180 E3.77676
M73 P18 R6
G1 X153.504 Y163.504 E1.88838
G1 X169.936 Y147.072 E1.8811
M204 S4000
M204 S10000
SET_VELOCITY_LIMIT SQUARE_CORNER_VELOCITY=5
G1 X170 Y146.081 F27000
M204 S2000
SET_VELOCITY_LIMIT SQUARE_CORNER_VELOCITY=1
G1 F7626.381
G1 X203.919 Y180 E3.8829
G1 X170 Y213.919 E3.8829
G1 X136.081 Y180 E3.8829
G1 X153.04 Y163.04 E1.94145
G1 X169.936 Y146.145 E1.93417
M204 S4000
M204 S10000
SET_VELOCITY_LIMIT SQUARE_CORNER_VELOCITY=5
G1 X170 Y145.154 F27000
M204 S1000
SET_VELOCITY_LIMIT SQUARE_CORNER_VELOCITY=1
;TYPE:Outer wall
G1 F4800
G1 X204.846 Y180 E3.98904
G1 X170 Y214.846 E3.98904
G1 X135.154 Y180 E3.98904
G1 X152.577 Y162.577 E1.99452
M73 P19 R6
G1 X169.936 Y145.217 E1.98724
G1 X170.031 Y145.27
M204 S4000
M204 S10000
SET_VELOCITY_LIMIT SQUARE_CORNER_VELOCITY=5
G1 E-.7 F1800
G1 Z.8 F27000
G1 X202.433 Y179.732 Z.6
G1 E.7 F1800
M204 S5000
;TYPE:Internal solid infill
;WIDTH:0.906739
G1 F5935.719
G1 X169.998 Y212.167 E4.7706
G1 X169.402 Y211.571 E.08761
G1 X201.571 Y179.402 E4.73149
G1 X200.976 Y178.806 E.08761
G1 X168.806 Y210.975 E4.73149
G1 X168.211 Y210.38 E.08761
G1 X200.38 Y178.211 E4.73149
G1 X199.784 Y177.615 E.08761
G1 X167.615 Y209.784 E4.73149
G1 X167.019 Y209.189 E.08761
G1 X199.189 Y177.019 E4.73149
G1 X198.593 Y176.424 E.08761
G1 X166.424 Y208.593 E4.73149
G1 X165.828 Y207.997 E.08761
G1 X197.997 Y175.828 E4.73149
G1 X197.402 Y175.232 E.08761
G1 X165.232 Y207.402 E4.73149
M73 P20 R6
G1 X164.637 Y206.806 E.08761
G1 X196.806 Y174.637 E4.73149
G1 X196.21 Y174.041 E.08761
G1 X164.041 Y206.21 E4.73149
G1 X163.446 Y205.615 E.08761
G1 X195.615 Y173.446 E4.73149
G1 X195.019 Y172.85 E.08761
G1 X162.85 Y205.019 E4.73149
G1 X162.254 Y204.423 E.08761
G1 X194.423 Y172.254 E4.73149
G1 X193.828 Y171.659 E.08761
G1 X161.659 Y203.828 E4.73149
G1 X161.063 Y203.232 E.08761
G1 X193.232 Y171.063 E4.73149
G1 X192.637 Y170.467 E.08761
G1 X160.467 Y202.637 E4.73149
G1 X159.872 Y202.041 E.08761
G1 X192.041 Y169.872 E4.73149
M73 P21 R6
G1 X191.445 Y169.276 E.08761
G1 X159.276 Y201.445 E4.73149
G1 X158.68 Y200.85 E.08761
G1 X190.85 Y168.68 E4.73149
G1 X190.254 Y168.085 E.08761
G1 X158.085 Y200.254 E4.73149
G1 X157.489 Y199.658 E.08761
G1 X189.658 Y167.489 E4.73149
G1 X189.063 Y166.894 E.08761
G1 X156.894 Y199.063 E4.73149
G1 X156.298 Y198.467 E.08761
G1 X188.467 Y166.298 E4.73149
G1 X187.871 Y165.702 E.08761
G1 X155.702 Y197.871 E4.73149
G1 X155.107 Y197.276 E.08761
G1 X187.276 Y165.107 E4.73149
G1 X186.68 Y164.511 E.08761
G1 X154.511 Y196.68 E4.73149
G1 X153.915 Y196.085 E.08761
G1 X186.085 Y163.915 E4.73149
M73 P22 R6
G1 X185.489 Y163.32 E.08761
G1 X153.32 Y195.489 E4.73149
G1 X152.724 Y194.893 E.08761
G1 X184.893 Y162.724 E4.73149
G1 X184.298 Y162.128 E.08761
G1 X152.128 Y194.298 E4.73149
G1 X151.533 Y193.702 E.08761
G1 X183.702 Y161.533 E4.73149
G1 X183.106 Y160.937 E.08761
G1 X150.937 Y193.106 E4.73149
G1 X150.342 Y192.511 E.08761
G1 X182.511 Y160.342 E4.73149
G1 X181.915 Y159.746 E.08761
G1 X149.746 Y191.915 E4.73149
G1 X149.15 Y191.319 E.08761
G1 X181.319 Y159.15 E4.73149
G1 X180.724 Y158.555 E.08761
G1 X148.555 Y190.724 E4.73149
M73 P23 R6
G1 X147.959 Y190.128 E.08761
G1 X180.128 Y157.959 E4.73149
G1 X179.533 Y157.363 E.08761
G1 X147.363 Y189.533 E4.73149
G1 X146.768 Y188.937 E.08761
G1 X178.937 Y156.768 E4.73149
G1 X178.341 Y156.172 E.08761
G1 X146.172 Y188.341 E4.73149
G1 X145.576 Y187.746 E.08761
G1 X177.746 Y155.576 E4.73149
G1 X177.15 Y154.981 E.08761
G1 X144.981 Y187.15 E4.73149
G1 X144.385 Y186.554 E.08761
G1 X176.554 Y154.385 E4.73149
G1 X175.959 Y153.79 E.08761
G1 X143.79 Y185.959 E4.73149
G1 X143.194 Y185.363 E.08761
G1 X175.363 Y153.194 E4.73149
G1 X174.767 Y152.598 E.08761
G1 X142.598 Y184.767 E4.73149
M73 P24 R6
G1 X142.003 Y184.172 E.08761
G1 X174.172 Y152.003 E4.73149
G1 X173.576 Y151.407 E.08761
G1 X141.407 Y183.576 E4.73149
G1 X140.811 Y182.981 E.08761
G1 X172.981 Y150.811 E4.73149
G1 X172.385 Y150.216 E.08761
G1 X140.216 Y182.385 E4.73149
G1 X139.62 Y181.789 E.08761
G1 X171.789 Y149.62 E4.73149
G1 X171.194 Y149.024 E.08761
G1 X139.024 Y181.194 E4.73149
G1 X138.429 Y180.598 E.08761
G1 X170.598 Y148.429 E4.73149
G1 X170.002 Y147.833 E.08761
G1 X137.567 Y180.268 E4.7706
M204 S4000
SET_VELOCITY_LIMIT SQUARE_CORNER_VELOCITY=1
; stop printing object Cube id:0 copy 0
EXCLUDE_OBJECT_END NAME=Cube_id_0_copy_0
;LAYER_CHANGE
;Z:0.9
;HEIGHT:0.3
;BEFORE_LAYER_CHANGE
;0.9
G92 E0

;AFTER_LAYER_CHANGE
;0.9
; printing object Cube id:0 copy 0
EXCLUDE_OBJECT_START NAME=Cube_id_0_copy_0
M204 S10000
SET_VELOCITY_LIMIT SQUARE_CORNER_VELOCITY=5
G1 E-.7 F1800
G1 Z.8 F27000
G1 X170 Y147.008 Z.9
G1 E.7 F1800
M204 S2000
SET_VELOCITY_LIMIT SQUARE_CORNER_VELOCITY=1
;TYPE:Inner wall
;WIDTH:0.72
G1 F7626.381
G1 X202.992 Y180 E3.77676
M73 P25 R6
G1 X186.496 Y196.496 E1.88838
M73 P25 R5
G1 X170 Y212.992 E1.88838
G1 X137.008 Y180 E3.77676
G1 X169.936 Y147.072 E3.76948
M204 S4000
M204 S10000
SET_VELOCITY_LIMIT SQUARE_CORNER_VELOCITY=5
G1 X170 Y146.081 F27000
M204 S2000
SET_VELOCITY_LIMIT SQUARE_CORNER_VELOCITY=1
G1 F7626.381
G1 X203.919 Y180 E3.8829
G1 X186.96 Y196.96 E1.94145
G1 X170 Y213.919 E1.94145
G1 X136.081 Y180 E3.8829
G1 X169.936 Y146.145 E3.87562
M204 S4000
M204 S10000
SET_VELOCITY_LIMIT SQUARE_CORNER_VELOCITY=5
G1 X170 Y145.154 F27000
M204 S1000
SET_VELOCITY_LIMIT SQUARE_CORNER_VELOCITY=1
;TYPE:Outer wall
G1 F4800
G1 X204.846 Y180 E3.98904
G1 X187.423 Y197.423 E1.99452
G1 X170 Y214.846 E1.99452
M73 P26 R5
G1 X135.154 Y180 E3.98904
G1 X169.936 Y145.217 E3.98176
G1 X170.06 Y145.258
M204 S4000
M204 S10000
SET_VELOCITY_LIMIT SQUARE_CORNER_VELOCITY=5
G1 E-.7 F1800
G1 Z1.1 F27000
G1 X145.127 Y172.704
G1 Z.9
G1 E.7 F1800
M204 S7000
;TYPE:Sparse infill
;WIDTH:0.9
G1 F5983.585
G1 X142.882 Y174.949 E.32752
G1 X185.656 Y163.487 E4.56871
G1 X186.513 Y164.344 E.12494
G1 X175.051 Y207.118 E4.56871
G1 X173.24 Y208.929 E.2643
G1 X141.071 Y176.76 E4.69364
G1 X137.831 Y180 E.47273
G1 X140.031 Y182.201 E.32109
G1 X190.774 Y168.604 E5.41975
G1 X191.63 Y169.461 E.12494
G1 X183.915 Y198.255 E3.07549
G1 X182.103 Y200.066 E.2643
G1 X149.934 Y167.897 E4.69364
G1 X151.745 Y166.085 E.2643
G1 X180.539 Y158.37 E3.07549
M73 P27 R5
G1 X181.396 Y159.226 E.12494
G1 X167.799 Y209.969 E5.41975
G1 X165.617 Y207.786 E.31842
G1 X177.592 Y204.578 E1.27901
G1 X177.672 Y204.498 E.01166
G1 X145.502 Y172.328 E4.69364
G1 X145.422 Y172.408 E.01166
G1 X142.214 Y184.383 E1.27901
G1 X145.149 Y187.318 E.42819
G1 X195.891 Y173.721 E5.41975
G1 X196.747 Y174.578 E.12494
G1 X192.778 Y189.392 E1.58226
G1 X190.966 Y191.203 E.2643
G1 X158.797 Y159.034 E4.69364
G1 X160.608 Y157.222 E.2643
G1 X175.422 Y153.253 E1.58226
G1 X176.279 Y154.109 E.12494
G1 X162.682 Y204.851 E5.41975
G1 X160.5 Y202.669 E.31842
G1 X186.455 Y195.715 E2.77223
G1 X186.535 Y195.635 E.01166
G1 X154.365 Y163.465 E4.69364
G1 X154.285 Y163.545 E.01166
G1 X147.331 Y189.5 E2.77223
G1 X149.694 Y191.864 E.34484
M204 S4000
SET_VELOCITY_LIMIT SQUARE_CORNER_VELOCITY=1
M204 S10000
SET_VELOCITY_LIMIT SQUARE_CORNER_VELOCITY=5
G1 X153.019 Y195.188 F27000
M204 S7000
M73 P28 R5
G1 F5983.585
G1 X155.383 Y197.552 E.34484
G1 X195.318 Y186.851 E4.26545
G1 X195.398 Y186.772 E.01166
G1 X163.228 Y154.602 E4.69364
G1 X163.149 Y154.682 E.01166
G1 X152.448 Y194.617 E4.26545
G1 X150.266 Y192.435 E.31842
G1 X201.008 Y178.839 E5.41975
G1 X201.864 Y179.695 E.12494
G1 X201.641 Y180.529 E.08904
G1 X199.829 Y182.34 E.2643
G1 X167.66 Y150.171 E4.69364
G1 X169.471 Y148.359 E.2643
G1 X170.305 Y148.136 E.08904
G1 X171.161 Y148.992 E.12494
G1 X157.565 Y199.734 E5.41975
G1 X159.929 Y202.098 E.34484
M204 S4000
SET_VELOCITY_LIMIT SQUARE_CORNER_VELOCITY=1
; stop printing object Cube id:0 copy 0
EXCLUDE_OBJECT_END NAME=Cube_id_0_copy_0
;LAYER_CHANGE
;Z:1.2
;HEIGHT:0.3
;BEFORE_LAYER_CHANGE
;1.2
G92 E0

;AFTER_LAYER_CHANGE
;1.2
; printing object Cube id:0 copy 0
EXCLUDE_OBJECT_START NAME=Cube_id_0_copy_0
M204 S10000
SET_VELOCITY_LIMIT SQUARE_CORNER_VELOCITY=5
G1 E-.7 F1800
G1 Z1.1 F27000
G1 X170 Y147.008 Z1.2
G1 E.7 F1800
M204 S2000
SET_VELOCITY_LIMIT SQUARE_CORNER_VELOCITY=1
;TYPE:Inner wall
;WIDTH:0.72
G1 F7626.381
G1 X202.992 Y180 E3.77676
G1 X186.496 Y196.496 E1.88838
G1 X170 Y212.992 E1.88838
G1 X137.008 Y180 E3.77676
M73 P29 R5
G1 X169.936 Y147.072 E3.76948
M204 S4000
M204 S10000
SET_VELOCITY_LIMIT SQUARE_CORNER_VELOCITY=5
G1 X170 Y146.081 F27000
M204 S2000
SET_VELOCITY_LIMIT SQUARE_CORNER_VELOCITY=1
G1 F7626.381
G1 X203.919 Y180 E3.8829
G1 X186.96 Y196.96 E1.94145
G1 X170 Y213.919 E1.94145
G1 X136.081 Y180 E3.8829
G1 X169.936 Y146.145 E3.87562
M204 S4000
M204 S10000
SET_VELOCITY_LIMIT SQUARE_CORNER_VELOCITY=5
G1 X170 Y145.154 F27000
M204 S1000
SET_VELOCITY_LIMIT SQUARE_CORNER_VELOCITY=1
;TYPE:Outer wall
G1 F4800
G1 X204.846 Y180 E3.98904
G1 X187.423 Y197.423 E1.99452
G1 X170 Y214.846 E1.99452
G1 X135.154 Y180 E3.98904
G1 X169.936 Y145.217 E3.98176
M73 P30 R5
G1 X170.06 Y145.258
M204 S4000
M204 S10000
SET_VELOCITY_LIMIT SQUARE_CORNER_VELOCITY=5
G1 E-.7 F1800
G1 Z1.4 F27000
G1 X144.827 Y173.004
G1 Z1.2
G1 E.7 F1800
M204 S7000
;TYPE:Sparse infill
;WIDTH:0.9
G1 F5983.585
G1 X142.582 Y175.249 E.32752
G1 X185.83 Y163.66 E4.61925
G1 X186.34 Y164.17 E.07439
