; generated by SuperSlicer 2.5.59 on 2022-10-19 at 21:11:36 UTC


;
;

;
;
; 

; external perimeters extrusion width = 0.40mm
; perimeters extrusion width = 0.46mm
; infill extrusion width = 0.50mm
; solid infill extrusion width = 0.48mm
; top infill extrusion width = 0.48mm
; first layer extrusion width = 0.50mm

; object:{"name":"Shape-Box","id":"Shape-Box id:0 copy 0","object_center":[175.000000,175.000000,0.000000],"boundingbox_center":[175.000000,175.000000,0.900000],"boundingbox_size":[50.000000,50.000000,1.800000]}
; plater:{"center":[175.000000,175.000000,0.000000],"boundingbox_center":[175.000000,175.000000,0.900000],"boundingbox_size":[50.000000,50.000000,1.800000]}

M73 P0.000 R7
M117 Time Left 0h7m40s
;TYPE:Custom
; custom gcode: start_gcode
PRINT_START BED=110 EXTRUDER=245 CHAMBER=50
; custom gcode end: start_gcode
M107
G21 ; set units to millimeters
G90 ; use absolute coordinates
M83 ; use relative distances for extrusion
; custom gcode: start_filament_gcode
; Filament gcode

; Macro syntax: https://help.prusa3d.com/article/macros_1775
; The "=~" operator uses regex enlosed by forward slashes (=~/regex/).
; The "==" operator can be used for an exact match instead if you wish (=="string").

; The below logic says:
; - IF printer settings profile name contains "Voron" (using regex)
; - AND nozzle size equals <value>
; - THEN insert the gcode (SET_ PRESSURE ADVANCE ADVANCE=<value>).
; Uncomment all lines below (and modify appropriately) if you wish to use this.

;SET_PRESSURE_ADVANCE ADVANCE=0.0495
;
; custom gcode end: start_filament_gcode
;_TOOLCHANGE 0
M104 S245 ; set temperature
M109 S245 ; set temperature and wait for it to be reached
M190 S110 ; set bed temperature and wait for it to be reached
;LAYER_CHANGE
;Z:0.28
;HEIGHT:0.28
G1 Z0.28 F27000
G92 E0
M73 P0.058 R7
M117 Time Left 0h7m20s
G1 E-0.5 F1800
G1 Z0.48 F27000
M204 S2000
G1 X147.652 Y147.026
G1 Z0.28
G1 E0.5 F1800
;TYPE:Skirt
;WIDTH:0.46
G1 X146.545 Y148.417 E0.07961
G1 X146.15 Y150.15 E0.07961
M117 Time Left 0h7m19s
G1 X146.15 Y199.85 E2.22581
M117 Time Left 0h7m18s
G1 X146.252 Y200.747 E0.04045
G1 X147.026 Y202.348 E0.07961
G1 X148.417 Y203.455 E0.07961
G1 X150.15 Y203.85 E0.07961
G1 X199.85 Y203.85 E2.22581
M73 P1.097 R7
M117 Time Left 0h7m16s
G1 X200.747 Y203.748 E0.04045
G1 X202.348 Y202.974 E0.07961
G1 X203.455 Y201.583 E0.07961
G1 X203.85 Y199.85 E0.07961
G1 X203.85 Y150.15 E2.22581
M117 Time Left 0h7m14s
G1 X203.748 Y149.253 E0.04045
G1 X202.974 Y147.652 E0.07961
G1 X201.583 Y146.545 E0.07961
G1 X199.85 Y146.15 E0.07961
G1 X150.15 Y146.15 E2.22581
M73 P1.934 R7
M117 Time Left 0h7m12s
G1 X149.253 Y146.252 E0.04045
G1 X147.652 Y147.026 E0.07961
G1 X147.978 Y147.306 F27000
G1 F1800
G1 X146.945 Y148.512 E0.07114
G1 X146.55 Y150.15 E0.07547
G1 X146.55 Y199.85 E2.22581
M117 Time Left 0h7m10s
G1 X147.232 Y201.959 E0.09925
G1 X148.512 Y203.055 E0.07547
G1 X150.15 Y203.45 E0.07547
G1 X199.85 Y203.45 E2.22581
M117 Time Left 0h7m8s
G1 X201.959 Y202.768 E0.09925
M117 Time Left 0h7m8s
G1 X203.055 Y201.488 E0.07547
G1 X203.45 Y199.85 E0.07547
G1 X203.45 Y150.15 E2.22581
M73 P3.187 R7
M117 Time Left 0h7m6s
G1 X202.768 Y148.041 E0.09925
G1 X201.488 Y146.945 E0.07547
G1 X199.85 Y146.55 E0.07547
M117 Time Left 0h7m6s
G1 X150.15 Y146.55 E2.22581
M117 Time Left 0h7m5s
G1 X148.041 Y147.232 E0.09925
G1 X147.978 Y147.306 E0.00433
G1 X148.292 Y147.599 F27000
G1 F1800
G1 X147.344 Y148.612 E0.06215
G1 X146.95 Y150.15 E0.07109
G1 X146.95 Y199.85 E2.22581
M73 P4.021 R7
M117 Time Left 0h7m3s
G1 X147.453 Y201.572 E0.08033
G1 X148.612 Y202.656 E0.07109
G1 X150.15 Y203.05 E0.07109
G1 X199.85 Y203.05 E2.22581
M117 Time Left 0h7m1s
G1 X201.572 Y202.547 E0.08033
G1 X202.656 Y201.388 E0.07109
G1 X203.05 Y199.85 E0.07109
G1 X203.05 Y150.15 E2.22581
M117 Time Left 0h6m59s
G1 X202.547 Y148.428 E0.08033
G1 X201.388 Y147.344 E0.07109
M73 P4.867 R7
G1 X199.85 Y146.95 E0.07109
G1 X150.15 Y146.95 E2.22581
M73 P5.250 R7
M117 Time Left 0h6m57s
G1 X148.428 Y147.453 E0.08033
G1 X148.292 Y147.599 E0.00895
G1 E-0.5
M204 S4000
G1 Z0.48 F27000
; printing object Shape-Box id:0 copy 0
; acceleration to travel
M204 S10000
G1 X170.549 Y189.833
; decel to extrusion
M204 S2000
G1 X175 Y198.28
; end travel
G1 Z0.28
G1 E0.5 F1800
;TYPE:Internal perimeter
;WIDTH:0.5
G1 X151.72 Y198.28 E1.14689
M117 Time Left 0h6m56s
G1 X151.72 Y151.72 E2.29377
M117 Time Left 0h6m54s
G1 X198.28 Y151.72 E2.29377
M73 P6.238 R7
M117 Time Left 0h6m53s
G1 X198.28 Y198.28 E2.29377
M117 Time Left 0h6m51s
G1 X175 Y198.28 E1.14689
M117 Time Left 0h6m51s
G1 X175 Y198.72 F27000
G1 F1800
G1 X151.28 Y198.72 E1.16856
M117 Time Left 0h6m50s
G1 X151.28 Y151.28 E2.33712
M73 P7.306 R7
M117 Time Left 0h6m48s
G1 X198.72 Y151.28 E2.33712
M117 Time Left 0h6m47s
G1 X198.72 Y198.72 E2.33712
M73 P8.020 R7
M117 Time Left 0h6m45s
G1 X175 Y198.72 E1.16856
M117 Time Left 0h6m44s
G1 X175 Y199.16 F27000
G1 F1800
G1 X150.84 Y199.16 E1.19023
G1 X150.84 Y150.84 E2.38046
M117 Time Left 0h6m42s
G1 X199.16 Y150.84 E2.38046
M73 P9.115 R7
M117 Time Left 0h6m40s
G1 X199.16 Y199.16 E2.38046
M117 Time Left 0h6m39s
G1 X175 Y199.16 E1.19023
M204 S1000
M117 Time Left 0h6m38s
G1 X175 Y199.6 F27000
;TYPE:External perimeter
G1 F1800
G1 X150.4 Y199.6 E1.2119
M117 Time Left 0h6m37s
G1 X150.4 Y150.4 E2.4238
M73 P10.229 R7
M117 Time Left 0h6m35s
G1 X199.6 Y150.4 E2.4238
M117 Time Left 0h6m34s
G1 X199.6 Y199.6 E2.4238
M117 Time Left 0h6m32s
G1 X175 Y199.6 E1.2119
;WIPE_START
M204 S4000
M73 P11.163 R7
M117 Time Left 0h6m31s
G1 X174.8 Y199.254 F27000
;WIPE_END
G1 E-0.5 F1800
G1 Z0.48 F27000
; acceleration to travel
M204 S10000
G1 X155.665 Y159.951
; decel to extrusion
M204 S2000
G1 X151.786 Y151.984
; end travel
G1 Z0.28
G1 E0.5 F1800
;TYPE:Solid infill
;WIDTH:0.499888
G1 F3600
G1 X198.025 Y151.984 E2.27744
M117 Time Left 0h6m30s
G1 X198.025 Y152.424 E0.02167
G1 X151.975 Y152.424 E2.26813
M117 Time Left 0h6m29s
G1 X151.975 Y152.864 E0.02167
G1 X198.025 Y152.864 E2.26813
M117 Time Left 0h6m28s
G1 X198.025 Y153.303 E0.02167
G1 X151.975 Y153.303 E2.26813
G1 X151.975 Y153.743 E0.02167
G1 X198.025 Y153.743 E2.26813
M117 Time Left 0h6m27s
G1 X198.025 Y154.183 E0.02167
G1 X151.975 Y154.183 E2.26813
M73 P12.352 R7
M117 Time Left 0h6m26s
G1 X151.975 Y154.623 E0.02167
G1 X198.025 Y154.623 E2.26813
M117 Time Left 0h6m25s
G1 X198.025 Y155.063 E0.02167
G1 X151.975 Y155.063 E2.26813
M117 Time Left 0h6m24s
G1 X151.975 Y155.503 E0.02167
G1 X198.025 Y155.503 E2.26813
G1 X198.025 Y155.943 E0.02167
G1 X151.975 Y155.943 E2.26813
M117 Time Left 0h6m23s
G1 X151.975 Y156.383 E0.02167
G1 X198.025 Y156.383 E2.26813
M73 P13.269 R6
M117 Time Left 0h6m22s
G1 X198.025 Y156.823 E0.02167
G1 X151.975 Y156.823 E2.26813
M117 Time Left 0h6m21s
G1 X151.975 Y157.263 E0.02167
G1 X198.025 Y157.263 E2.26813
M117 Time Left 0h6m20s
G1 X198.025 Y157.703 E0.02167
G1 X151.975 Y157.703 E2.26813
G1 X151.975 Y158.142 E0.02167
G1 X198.025 Y158.142 E2.26813
M117 Time Left 0h6m19s
G1 X198.025 Y158.582 E0.02167
G1 X151.975 Y158.582 E2.26813
M117 Time Left 0h6m18s
G1 X151.975 Y159.022 E0.02167
G1 X198.025 Y159.022 E2.26813
M73 P14.369 R6
M117 Time Left 0h6m17s
G1 X198.025 Y159.462 E0.02167
G1 X151.975 Y159.462 E2.26813
M117 Time Left 0h6m16s
G1 X151.975 Y159.902 E0.02167
G1 X198.025 Y159.902 E2.26813
M117 Time Left 0h6m15s
G1 X198.025 Y160.342 E0.02167
G1 X151.975 Y160.342 E2.26813
G1 X151.975 Y160.782 E0.02167
G1 X198.025 Y160.782 E2.26813
M117 Time Left 0h6m14s
G1 X198.025 Y161.222 E0.02167
G1 X151.975 Y161.222 E2.26813
M117 Time Left 0h6m13s
G1 X151.975 Y161.662 E0.02167
G1 X198.025 Y161.662 E2.26813
M73 P15.469 R6
M117 Time Left 0h6m12s
G1 X198.025 Y162.102 E0.02167
G1 X151.975 Y162.102 E2.26813
M117 Time Left 0h6m11s
G1 X151.975 Y162.542 E0.02167
G1 X198.025 Y162.542 E2.26813
G1 X198.025 Y162.981 E0.02167
G1 X151.975 Y162.981 E2.26813
M117 Time Left 0h6m10s
G1 X151.975 Y163.421 E0.02167
G1 X198.025 Y163.421 E2.26813
M117 Time Left 0h6m9s
G1 X198.025 Y163.861 E0.02167
G1 X151.975 Y163.861 E2.26813
M73 P16.385 R6
M117 Time Left 0h6m8s
G1 X151.975 Y164.301 E0.02167
G1 X198.025 Y164.301 E2.26813
M117 Time Left 0h6m7s
G1 X198.025 Y164.741 E0.02167
G1 X151.975 Y164.741 E2.26813
G1 X151.975 Y165.181 E0.02167
G1 X198.025 Y165.181 E2.26813
M117 Time Left 0h6m6s
G1 X198.025 Y165.621 E0.02167
G1 X151.975 Y165.621 E2.26813
M117 Time Left 0h6m5s
G1 X151.975 Y166.061 E0.02167
G1 X198.025 Y166.061 E2.26813
M117 Time Left 0h6m4s
G1 X198.025 Y166.501 E0.02167
G1 X151.975 Y166.501 E2.26813
M73 P17.485 R6
M117 Time Left 0h6m3s
G1 X151.975 Y166.941 E0.02167
G1 X198.025 Y166.941 E2.26813
G1 X198.025 Y167.381 E0.02167
G1 X151.975 Y167.381 E2.26813
M117 Time Left 0h6m2s
G1 X151.975 Y167.821 E0.02167
G1 X198.025 Y167.821 E2.26813
M117 Time Left 0h6m1s
G1 X198.025 Y168.26 E0.02167
G1 X151.975 Y168.26 E2.26813
M117 Time Left 0h6m0s
G1 X151.975 Y168.7 E0.02167
G1 X198.025 Y168.7 E2.26813
M117 Time Left 0h5m59s
G1 X198.025 Y169.14 E0.02167
G1 X151.975 Y169.14 E2.26813
M73 P18.585 R6
M117 Time Left 0h5m58s
G1 X151.975 Y169.58 E0.02167
G1 X198.025 Y169.58 E2.26813
G1 X198.025 Y170.02 E0.02167
G1 X151.975 Y170.02 E2.26813
M117 Time Left 0h5m57s
G1 X151.975 Y170.46 E0.02167
G1 X198.025 Y170.46 E2.26813
M117 Time Left 0h5m56s
G1 X198.025 Y170.9 E0.02167
G1 X151.975 Y170.9 E2.26813
M117 Time Left 0h5m55s
G1 X151.975 Y171.34 E0.02167
G1 X198.025 Y171.34 E2.26813
M73 P19.502 R6
M117 Time Left 0h5m54s
G1 X198.025 Y171.78 E0.02167
G1 X151.975 Y171.78 E2.26813
G1 X151.975 Y172.22 E0.02167
G1 X198.025 Y172.22 E2.26813
M117 Time Left 0h5m53s
G1 X198.025 Y172.66 E0.02167
G1 X151.975 Y172.66 E2.26813
M117 Time Left 0h5m52s
G1 X151.975 Y173.099 E0.02167
G1 X198.025 Y173.099 E2.26813
M117 Time Left 0h5m51s
G1 X198.025 Y173.539 E0.02167
G1 X151.975 Y173.539 E2.26813
M117 Time Left 0h5m50s
G1 X151.975 Y173.979 E0.02167
G1 X198.025 Y173.979 E2.26813
M73 P20.602 R6
G1 X198.025 Y174.419 E0.02167
G1 X151.975 Y174.419 E2.26813
M117 Time Left 0h5m49s
G1 X151.975 Y174.859 E0.02167
G1 X198.025 Y174.859 E2.26813
M117 Time Left 0h5m48s
G1 X198.025 Y175.299 E0.02167
G1 X151.975 Y175.299 E2.26813
M117 Time Left 0h5m47s
G1 X151.975 Y175.739 E0.02167
G1 X198.025 Y175.739 E2.26813
M117 Time Left 0h5m46s
G1 X198.025 Y176.179 E0.02167
G1 X151.975 Y176.179 E2.26813
G1 X151.975 Y176.619 E0.02167
G1 X198.025 Y176.619 E2.26813
M73 P21.702 R6
M117 Time Left 0h5m45s
G1 X198.025 Y177.059 E0.02167
G1 X151.975 Y177.059 E2.26813
M117 Time Left 0h5m44s
G1 X151.975 Y177.499 E0.02167
G1 X198.025 Y177.499 E2.26813
M117 Time Left 0h5m43s
G1 X198.025 Y177.938 E0.02167
G1 X151.975 Y177.938 E2.26813
M117 Time Left 0h5m42s
G1 X151.975 Y178.378 E0.02167
G1 X198.025 Y178.378 E2.26813
M117 Time Left 0h5m41s
G1 X198.025 Y178.818 E0.02167
G1 X151.975 Y178.818 E2.26813
M73 P22.618 R6
G1 X151.975 Y179.258 E0.02167
G1 X198.025 Y179.258 E2.26813
M117 Time Left 0h5m40s
G1 X198.025 Y179.698 E0.02167
G1 X151.975 Y179.698 E2.26813
M117 Time Left 0h5m39s
G1 X151.975 Y180.138 E0.02167
G1 X198.025 Y180.138 E2.26813
M117 Time Left 0h5m38s
G1 X198.025 Y180.578 E0.02167
G1 X151.975 Y180.578 E2.26813
M117 Time Left 0h5m37s
G1 X151.975 Y181.018 E0.02167
G1 X198.025 Y181.018 E2.26813
G1 X198.025 Y181.458 E0.02167
G1 X151.975 Y181.458 E2.26813
M73 P23.718 R6
M117 Time Left 0h5m36s
G1 X151.975 Y181.898 E0.02167
G1 X198.025 Y181.898 E2.26813
M117 Time Left 0h5m35s
G1 X198.025 Y182.338 E0.02167
G1 X151.975 Y182.338 E2.26813
M117 Time Left 0h5m34s
G1 X151.975 Y182.777 E0.02167
G1 X198.025 Y182.777 E2.26813
M117 Time Left 0h5m33s
G1 X198.025 Y183.217 E0.02167
G1 X151.975 Y183.217 E2.26813
G1 X151.975 Y183.657 E0.02167
G1 X198.025 Y183.657 E2.26813
M117 Time Left 0h5m32s
G1 X198.025 Y184.097 E0.02167
G1 X151.975 Y184.097 E2.26813
M73 P24.818 R6
M117 Time Left 0h5m31s
G1 X151.975 Y184.537 E0.02167
G1 X198.025 Y184.537 E2.26813
M117 Time Left 0h5m30s
G1 X198.025 Y184.977 E0.02167
G1 X151.975 Y184.977 E2.26813
M117 Time Left 0h5m29s
G1 X151.975 Y185.417 E0.02167
G1 X198.025 Y185.417 E2.26813
G1 X198.025 Y185.857 E0.02167
G1 X151.975 Y185.857 E2.26813
M117 Time Left 0h5m28s
G1 X151.975 Y186.297 E0.02167
G1 X198.025 Y186.297 E2.26813
M117 Time Left 0h5m27s
G1 X198.025 Y186.737 E0.02167
G1 X151.975 Y186.737 E2.26813
M73 P25.918 R6
M117 Time Left 0h5m26s
G1 X151.975 Y187.177 E0.02167
G1 X198.025 Y187.177 E2.26813
M117 Time Left 0h5m25s
G1 X198.025 Y187.616 E0.02167
G1 X151.975 Y187.616 E2.26813
M117 Time Left 0h5m24s
G1 X151.975 Y188.056 E0.02167
G1 X198.025 Y188.056 E2.26813
G1 X198.025 Y188.496 E0.02167
G1 X151.975 Y188.496 E2.26813
M117 Time Left 0h5m23s
G1 X151.975 Y188.936 E0.02167
G1 X198.025 Y188.936 E2.26813
M73 P26.835 R5
M117 Time Left 0h5m22s
G1 X198.025 Y189.376 E0.02167
G1 X151.975 Y189.376 E2.26813
M117 Time Left 0h5m21s
G1 X151.975 Y189.816 E0.02167
G1 X198.025 Y189.816 E2.26813
M117 Time Left 0h5m20s
G1 X198.025 Y190.256 E0.02167
G1 X151.975 Y190.256 E2.26813
G1 X151.975 Y190.696 E0.02167
G1 X198.025 Y190.696 E2.26813
M117 Time Left 0h5m19s
G1 X198.025 Y191.136 E0.02167
G1 X151.975 Y191.136 E2.26813
M117 Time Left 0h5m18s
G1 X151.975 Y191.576 E0.02167
G1 X198.025 Y191.576 E2.26813
M73 P27.935 R5
M117 Time Left 0h5m17s
G1 X198.025 Y192.016 E0.02167
G1 X151.975 Y192.016 E2.26813
M117 Time Left 0h5m16s
G1 X151.975 Y192.456 E0.02167
G1 X198.025 Y192.456 E2.26813
G1 X198.025 Y192.895 E0.02167
G1 X151.975 Y192.895 E2.26813
M117 Time Left 0h5m15s
G1 X151.975 Y193.335 E0.02167
G1 X198.025 Y193.335 E2.26813
M117 Time Left 0h5m14s
G1 X198.025 Y193.775 E0.02167
G1 X151.975 Y193.775 E2.26813
M117 Time Left 0h5m13s
G1 X151.975 Y194.215 E0.02167
G1 X198.025 Y194.215 E2.26813
M73 P29.035 R5
M117 Time Left 0h5m12s
G1 X198.025 Y194.655 E0.02167
G1 X151.975 Y194.655 E2.26813
G1 X151.975 Y195.095 E0.02167
G1 X198.025 Y195.095 E2.26813
M117 Time Left 0h5m11s
G1 X198.025 Y195.535 E0.02167
G1 X151.975 Y195.535 E2.26813
M117 Time Left 0h5m10s
G1 X151.975 Y195.975 E0.02167
G1 X198.025 Y195.975 E2.26813
M117 Time Left 0h5m9s
G1 X198.025 Y196.415 E0.02167
G1 X151.975 Y196.415 E2.26813
M73 P29.951 R5
M117 Time Left 0h5m8s
G1 X151.975 Y196.855 E0.02167
G1 X198.025 Y196.855 E2.26813
M117 Time Left 0h5m7s
G1 X198.025 Y197.295 E0.02167
G1 X151.975 Y197.295 E2.26813
G1 X151.975 Y197.734 E0.02167
G1 X198.214 Y197.734 E2.27744
M117 Time Left 0h5m6s
G1 X198.06 Y198.007 F27000
;TYPE:Gap fill
;WIDTH:0.166043
G1 F1800
G1 X198.007 Y198.007 E0.00063
G1 X175 Y198.007 E0.27299
M117 Time Left 0h5m5s
G1 X151.993 Y198.007 E0.27299
M117 Time Left 0h5m4s
G1 X151.94 Y198.007 E0.00063
M106 S127.5
;LAYER_CHANGE
;Z:0.48
;HEIGHT:0.2
; stop printing object Shape-Box id:0 copy 0
M204 S4000
G1 Z0.48 F27000
G92 E0
; printing object Shape-Box id:0 copy 0
; acceleration to travel
M204 S10000
G1 X170.78 Y198.392
; decel to extrusion
M204 S2000
G1 X175 Y198.479
; end travel
;TYPE:Internal perimeter
;WIDTH:0.46
G1 F9000
G1 X151.521 Y198.479 E0.78331
G1 X151.521 Y151.521 E1.56662
M73 P31.033 R5
G1 X198.479 Y151.521 E1.56662
M117 Time Left 0h5m3s
G1 X198.479 Y198.479 E1.56662
G1 X175 Y198.479 E0.78331
G1 X175 Y198.896 F27000
G1 F9000
G1 X151.104 Y198.896 E0.79722
M117 Time Left 0h5m2s
G1 X151.104 Y151.104 E1.59445
G1 X198.896 Y151.104 E1.59445
G1 X198.896 Y198.896 E1.59445
M117 Time Left 0h5m1s
G1 X175 Y198.896 E0.79722
G1 X175 Y199.313 F27000
G1 F9000
G1 X150.687 Y199.313 E0.81114
G1 X150.687 Y150.687 E1.62228
M117 Time Left 0h5m0s
G1 X199.313 Y150.687 E1.62228
G1 X199.313 Y199.313 E1.62228
M117 Time Left 0h4m59s
G1 X175 Y199.313 E0.81114
M204 S1000
G1 X175 Y199.7 F27000
;TYPE:External perimeter
;WIDTH:0.4
G1 F4800
G1 X150.3 Y199.7 E0.70551
M73 P32.092 R5
G1 X150.3 Y150.3 E1.41101
M117 Time Left 0h4m58s
G1 X199.7 Y150.3 E1.41101
M117 Time Left 0h4m57s
G1 X199.7 Y199.7 E1.41101
G1 X175 Y199.7 E0.70551
;WIPE_START
M204 S4000
M117 Time Left 0h4m56s
G1 X174.8 Y199.354 F27000
;WIPE_END
; acceleration to travel
M204 S10000
G1 X174.289 Y198.877
; decel to extrusion
M204 S7000
G1 X173.764 Y198.387
; end travel
;TYPE:Internal infill
;WIDTH:0.5
G1 F15752.179
G1 X198.387 Y155.739 E1.80053
; acceleration to travel
M204 S10000
G1 X198.387 Y154.999 F27000
