; HEADER_BLOCK_START
; generated by OrcaSlicer 1.6.3 on 2023-07-07 at 16:52:07
; total layer number: 10
; HEADER_BLOCK_END

; THUMBNAIL_BLOCK_START
; THUMBNAIL_BLOCK_END

; external perimeters extrusion width = 0.72mm
; perimeters extrusion width = 0.72mm
; infill extrusion width = 0.90mm
; solid infill extrusion width = 0.90mm
; top infill extrusion width = 0.60mm
; first layer extrusion width = 0.90mm

; EXECUTABLE_BLOCK_START
EXCLUDE_OBJECT_DEFINE NAME=Cube_id_0_copy_0 CENTER=170,180 POLYGON=[[145,155],[195,155],[195,205],[145,205],[145,155]]
M73 P0 R9
;TYPE:Custom
PRINT_START EXTRUDER=260 BED=100
G90
G21
M83 ; use relative distances for extrusion
; Filament gcode
SET_PRESSURE_ADVANCE ADVANCE=0.02512; Override pressure advance value
M106 S0
;LAYER_CHANGE
;Z:0.3
;HEIGHT:0.3
;BEFORE_LAYER_CHANGE
;0.3
G92 E0

;AFTER_LAYER_CHANGE
;0.3
M204 S500
SET_VELOCITY_LIMIT SQUARE_CORNER_VELOCITY=9
G1 E-.7 F1800
G1 Z.2 F13500
G1 X142.822 Y152.044 F27000
G1 Z.3 F13500
G1 E.7 F1800
;TYPE:Skirt
;WIDTH:0.9
G1 F2400
G1 X145 Y151.329 E.23892
G1 X195 Y151.329 E5.21115
G1 X196.656 Y151.723 E.17739
G1 X197.956 Y152.822 E.17739
G1 X198.671 Y155 E.23892
G1 X198.671 Y205 E5.21115
G1 X198.277 Y206.656 E.17739
G1 X197.178 Y207.956 E.17739
G1 X195 Y208.671 E.23892
G1 X145 Y208.671 E5.21115
G1 X143.344 Y208.277 E.17739
G1 X142.044 Y207.178 E.17739
G1 X141.329 Y205 E.23892
G1 X141.329 Y155 E5.21115
M73 P1 R9
G1 X141.723 Y153.344 E.17739
G1 X142.764 Y152.113 E.16801
G1 X143.387 Y152.753 F13500
G1 F2400
G1 X143.627 Y152.519 E.035
G1 X145 Y152.164 E.14776
G1 X195 Y152.164 E5.21115
G1 X196.44 Y152.557 E.15559
G1 X197.481 Y153.627 E.15559
G1 X197.836 Y155 E.14776
G1 X197.836 Y205 E5.21115
G1 X197.443 Y206.44 E.15559
G1 X196.373 Y207.481 E.15559
G1 X195 Y207.836 E.14776
G1 X145 Y207.836 E5.21115
G1 X143.56 Y207.443 E.15559
G1 X142.519 Y206.373 E.15559
G1 X142.164 Y205 E.14776
G1 X142.164 Y155 E5.21115
M73 P2 R9
G1 X142.557 Y153.56 E.15559
G1 X143.322 Y152.816 E.1112
; printing object Cube id:0 copy 0
EXCLUDE_OBJECT_START NAME=Cube_id_0_copy_0
G1 E-.49 F1800
;WIPE_START
G1 F2400
G1 X143.627 Y152.519 E-.04248
G1 X145 Y152.164 E-.14142
G1 X145.156 Y152.164 E-.0156
;WIPE_END
G1 E-.0105 F1800
G1 Z.5 F13500
G1 X192.729 Y202.729
G1 Z.3
G1 E.7 F1800
;TYPE:Inner wall
;WIDTH:0.899999
G1 F2400
G1 X147.271 Y202.729 E4.73772
G1 X147.271 Y157.271 E4.73772
G1 X192.729 Y157.271 E4.73772
G1 X192.729 Y180 E2.36886
M73 P3 R9
G1 X192.729 Y202.639 E2.35948
G1 E-.7 F1800
G1 Z.5 F13500
G1 X193.564 Y203.564
G1 Z.3
G1 E.7 F1800
G1 F2400
G1 X146.436 Y203.564 E4.9119
G1 X146.436 Y156.436 E4.9119
G1 X193.564 Y156.436 E4.9119
G1 X193.564 Y180 E2.45595
G1 X193.564 Y203.474 E2.44657
M73 P4 R9
G1 E-.7 F1800
G1 Z.5 F13500
G1 X194.4 Y204.4
G1 Z.3
G1 E.7 F1800
;TYPE:Outer wall
G1 F2400
G1 X145.6 Y204.4 E5.08608
G1 X145.6 Y155.6 E5.08608
G1 X194.4 Y155.6 E5.08608
G1 X194.4 Y180 E2.54304
G1 X194.4 Y204.31 E2.53366
G1 X194.296 Y204.34
G1 E-.7 F1800
G1 Z.5 F13500
M73 P5 R9
G1 X190.784 Y157.522
G1 Z.3
G1 E.7 F1800
;TYPE:Bottom surface
;WIDTH:0.902483
G1 F3000
G1 X192.102 Y158.84 E.1949
G1 X192.102 Y160.026 E.1239
G1 X189.974 Y157.898 E.31452
G1 X188.789 Y157.898 E.1239
G1 X192.102 Y161.211 E.48974
G1 X192.102 Y162.396 E.1239
G1 X187.604 Y157.898 E.66496
G1 X186.419 Y157.898 E.1239
G1 X192.102 Y163.581 E.84018
G1 X192.102 Y164.767 E.1239
G1 X185.233 Y157.898 E1.0154
G1 X184.048 Y157.898 E.1239
G1 X192.102 Y165.952 E1.19062
G1 X192.102 Y167.137 E.1239
G1 X182.863 Y157.898 E1.36583
G1 X181.678 Y157.898 E.1239
G1 X192.102 Y168.322 E1.54105
G1 X192.102 Y169.508 E.1239
G1 X180.492 Y157.898 E1.71627
G1 X179.307 Y157.898 E.1239
G1 X192.102 Y170.693 E1.89149
G1 X192.102 Y171.878 E.1239
G1 X178.122 Y157.898 E2.06671
G1 X176.937 Y157.898 E.1239
G1 X192.102 Y173.063 E2.24192
G1 X192.102 Y174.249 E.1239
G1 X175.751 Y157.898 E2.41714
M73 P6 R9
G1 X174.566 Y157.898 E.1239
G1 X192.102 Y175.434 E2.59236
G1 X192.102 Y176.619 E.1239
G1 X173.381 Y157.898 E2.76758
G1 X172.196 Y157.898 E.1239
G1 X192.102 Y177.804 E2.9428
G1 X192.102 Y178.99 E.1239
G1 X171.01 Y157.898 E3.11801
G1 X169.825 Y157.898 E.1239
G1 X192.102 Y180.175 E3.29323
G1 X192.102 Y181.36 E.1239
G1 X168.64 Y157.898 E3.46845
G1 X167.455 Y157.898 E.1239
G1 X192.102 Y182.545 E3.64367
G1 X192.102 Y183.731 E.1239
G1 X166.269 Y157.898 E3.81889
M73 P7 R9
G1 X165.084 Y157.898 E.1239
G1 X192.102 Y184.916 E3.99411
G1 X192.102 Y186.101 E.1239
G1 X163.899 Y157.898 E4.16932
G1 X162.714 Y157.898 E.1239
G1 X192.102 Y187.286 E4.34454
G1 X192.102 Y188.472 E.1239
G1 X161.528 Y157.898 E4.51976
G1 X160.343 Y157.898 E.1239
G1 X192.102 Y189.657 E4.69498
G1 X192.102 Y190.842 E.1239
G1 X159.158 Y157.898 E4.8702
M73 P8 R8
G1 X157.973 Y157.898 E.1239
G1 X192.102 Y192.027 E5.04541
G1 X192.102 Y193.213 E.1239
G1 X156.787 Y157.898 E5.22063
G1 X155.602 Y157.898 E.1239
G1 X192.102 Y194.398 E5.39585
G1 X192.102 Y195.583 E.1239
G1 X154.417 Y157.898 E5.57107
G1 X153.232 Y157.898 E.1239
G1 X192.102 Y196.768 E5.74629
M73 P9 R8
G1 X192.102 Y197.954 E.1239
G1 X152.046 Y157.898 E5.9215
G1 X150.861 Y157.898 E.1239
G1 X192.102 Y199.139 E6.09672
G1 X192.102 Y200.324 E.1239
G1 X149.676 Y157.898 E6.27194
G1 X148.491 Y157.898 E.1239
G1 X192.102 Y201.509 E6.44716
G1 X192.102 Y202.102 E.06195
G1 X191.509 Y202.102 E.06195
G1 X147.898 Y158.491 E6.44715
M73 P10 R8
G1 X147.898 Y159.676 E.1239
G1 X190.324 Y202.102 E6.27193
G1 X189.139 Y202.102 E.1239
G1 X147.898 Y160.861 E6.09671
G1 X147.898 Y162.046 E.1239
G1 X187.954 Y202.102 E5.9215
G1 X186.768 Y202.102 E.1239
G1 X147.898 Y163.232 E5.74628
M73 P11 R8
G1 X147.898 Y164.417 E.1239
G1 X185.583 Y202.102 E5.57106
G1 X184.398 Y202.102 E.1239
G1 X147.898 Y165.602 E5.39584
G1 X147.898 Y166.787 E.1239
G1 X183.213 Y202.102 E5.22062
G1 X182.027 Y202.102 E.1239
G1 X147.898 Y167.973 E5.04541
G1 X147.898 Y169.158 E.1239
G1 X180.842 Y202.102 E4.87019
M73 P12 R8
G1 X179.657 Y202.102 E.1239
G1 X147.898 Y170.343 E4.69497
G1 X147.898 Y171.528 E.1239
G1 X178.472 Y202.102 E4.51975
G1 X177.286 Y202.102 E.1239
G1 X147.898 Y172.714 E4.34453
G1 X147.898 Y173.899 E.1239
G1 X176.101 Y202.102 E4.16931
G1 X174.916 Y202.102 E.1239
G1 X147.898 Y175.084 E3.9941
G1 X147.898 Y176.269 E.1239
G1 X173.731 Y202.102 E3.81888
M73 P13 R8
G1 X172.545 Y202.102 E.1239
G1 X147.898 Y177.455 E3.64366
G1 X147.898 Y178.64 E.1239
G1 X171.36 Y202.102 E3.46844
G1 X170.175 Y202.102 E.1239
G1 X147.898 Y179.825 E3.29322
G1 X147.898 Y181.01 E.1239
G1 X168.99 Y202.102 E3.11801
G1 X167.804 Y202.102 E.1239
G1 X147.898 Y182.196 E2.94279
G1 X147.898 Y183.381 E.1239
G1 X166.619 Y202.102 E2.76757
G1 X165.434 Y202.102 E.1239
G1 X147.898 Y184.566 E2.59235
G1 X147.898 Y185.751 E.1239
G1 X164.249 Y202.102 E2.41713
G1 X163.063 Y202.102 E.1239
G1 X147.898 Y186.937 E2.24192
M73 P14 R8
G1 X147.898 Y188.122 E.1239
G1 X161.878 Y202.102 E2.0667
G1 X160.693 Y202.102 E.1239
G1 X147.898 Y189.307 E1.89148
G1 X147.898 Y190.492 E.1239
G1 X159.508 Y202.102 E1.71626
G1 X158.322 Y202.102 E.1239
G1 X147.898 Y191.678 E1.54104
G1 X147.898 Y192.863 E.1239
G1 X157.137 Y202.102 E1.36582
G1 X155.952 Y202.102 E.1239
G1 X147.898 Y194.048 E1.19061
G1 X147.898 Y195.234 E.1239
G1 X154.766 Y202.102 E1.01539
G1 X153.581 Y202.102 E.1239
G1 X147.898 Y196.419 E.84017
G1 X147.898 Y197.604 E.1239
G1 X152.396 Y202.102 E.66495
G1 X151.211 Y202.102 E.1239
G1 X147.898 Y198.789 E.48973
G1 X147.898 Y199.975 E.1239
G1 X150.025 Y202.102 E.31452
G1 X148.84 Y202.102 E.1239
G1 X147.522 Y200.784 E.19489
; stop printing object Cube id:0 copy 0
EXCLUDE_OBJECT_END NAME=Cube_id_0_copy_0
M106 S153
;LAYER_CHANGE
;Z:0.6
;HEIGHT:0.3
;BEFORE_LAYER_CHANGE
;0.6
G92 E0

;AFTER_LAYER_CHANGE
;0.6
M204 S4000
SET_VELOCITY_LIMIT SQUARE_CORNER_VELOCITY=1
M140 S100 ; set bed temperature
; printing object Cube id:0 copy 0
EXCLUDE_OBJECT_START NAME=Cube_id_0_copy_0
M204 S10000
SET_VELOCITY_LIMIT SQUARE_CORNER_VELOCITY=9
G1 E-.7 F1800
G1 Z.5 F27000
G1 X193.329 Y203.329 Z.6
G1 E.7 F1800
M204 S2000
SET_VELOCITY_LIMIT SQUARE_CORNER_VELOCITY=1
;TYPE:Inner wall
;WIDTH:0.72
G1 F7626.381
G1 X146.671 Y203.329 E3.8153
G1 X146.671 Y156.671 E3.8153
G1 X193.329 Y156.671 E3.8153
M73 P15 R8
G1 X193.329 Y180 E1.90765
G1 X193.329 Y203.239 E1.90029
M204 S4000
M204 S10000
SET_VELOCITY_LIMIT SQUARE_CORNER_VELOCITY=9
G1 X193.984 Y203.984 F27000
M204 S2000
SET_VELOCITY_LIMIT SQUARE_CORNER_VELOCITY=1
G1 F7626.381
G1 X146.016 Y203.984 E3.92252
G1 X146.016 Y156.016 E3.92252
G1 X193.984 Y156.016 E3.92252
G1 X193.984 Y180 E1.96126
G1 X193.984 Y203.894 E1.9539
M204 S4000
M204 S10000
SET_VELOCITY_LIMIT SQUARE_CORNER_VELOCITY=9
G1 X194.64 Y204.64 F27000
M204 S1000
SET_VELOCITY_LIMIT SQUARE_CORNER_VELOCITY=1
;TYPE:Outer wall
G1 F4800
G1 X145.36 Y204.64 E4.02974
G1 X145.36 Y155.36 E4.02974
G1 X194.64 Y155.36 E4.02974
G1 X194.64 Y180 E2.01487
G1 X194.64 Y204.55 E2.00751
G1 X194.536 Y204.58
M204 S4000
M204 S10000
SET_VELOCITY_LIMIT SQUARE_CORNER_VELOCITY=9
G1 E-.7 F1800
G1 Z.8 F27000
G1 X193.123 Y201.425 Z.6
G1 E.7 F1800
M204 S5000
;TYPE:Internal solid infill
;WIDTH:0.904382
G1 F5952.374
G1 X191.801 Y202.747 E.19593
G1 X190.613 Y202.747 E.12446
G1 X192.747 Y200.613 E.31623
G1 X192.747 Y199.425 E.12446
G1 X189.425 Y202.747 E.49225
G1 X188.237 Y202.747 E.12446
G1 X192.747 Y198.237 E.66826
G1 X192.747 Y197.049 E.12446
G1 X187.049 Y202.747 E.84427
M73 P16 R8
G1 X185.861 Y202.747 E.12446
G1 X192.747 Y195.861 E1.02028
G1 X192.747 Y194.673 E.12446
G1 X184.673 Y202.747 E1.1963
G1 X183.485 Y202.747 E.12446
G1 X192.747 Y193.485 E1.37231
G1 X192.747 Y192.297 E.12446
G1 X182.297 Y202.747 E1.54832
G1 X181.109 Y202.747 E.12446
G1 X192.747 Y191.109 E1.72434
G1 X192.747 Y189.921 E.12446
G1 X179.921 Y202.747 E1.90035
G1 X178.733 Y202.747 E.12446
G1 X192.747 Y188.733 E2.07636
G1 X192.747 Y187.545 E.12446
G1 X177.545 Y202.747 E2.25238
G1 X176.357 Y202.747 E.12446
G1 X192.747 Y186.357 E2.42839
G1 X192.747 Y185.17 E.12446
G1 X175.17 Y202.747 E2.6044
G1 X173.982 Y202.747 E.12446
G1 X192.747 Y183.982 E2.78042
G1 X192.747 Y182.794 E.12446
G1 X172.794 Y202.747 E2.95643
G1 X171.606 Y202.747 E.12446
G1 X192.747 Y181.606 E3.13244
G1 X192.747 Y180.418 E.12446
G1 X170.418 Y202.747 E3.30845
G1 X169.23 Y202.747 E.12446
G1 X192.747 Y179.23 E3.48447
G1 X192.747 Y178.042 E.12446
G1 X168.042 Y202.747 E3.66048
G1 X166.854 Y202.747 E.12446
G1 X192.747 Y176.854 E3.83649
G1 X192.747 Y175.666 E.12446
G1 X165.666 Y202.747 E4.01251
G1 X164.478 Y202.747 E.12446
G1 X192.747 Y174.478 E4.18852
G1 X192.747 Y173.29 E.12446
G1 X163.29 Y202.747 E4.36453
M73 P17 R8
G1 X162.102 Y202.747 E.12446
G1 X192.747 Y172.102 E4.54055
G1 X192.747 Y170.914 E.12446
G1 X160.914 Y202.747 E4.71656
G1 X159.726 Y202.747 E.12446
G1 X192.747 Y169.726 E4.89257
G1 X192.747 Y168.538 E.12446
G1 X158.538 Y202.747 E5.06858
G1 X157.35 Y202.747 E.12446
G1 X192.747 Y167.35 E5.2446
G1 X192.747 Y166.162 E.12446
G1 X156.162 Y202.747 E5.42061
G1 X154.975 Y202.747 E.12446
G1 X192.747 Y164.975 E5.59662
G1 X192.747 Y163.787 E.12446
G1 X153.787 Y202.747 E5.77264
G1 X152.599 Y202.747 E.12446
G1 X192.747 Y162.599 E5.94865
G1 X192.747 Y161.411 E.12446
G1 X151.411 Y202.747 E6.12466
G1 X150.223 Y202.747 E.12446
M73 P18 R8
G1 X192.747 Y160.223 E6.30068
G1 X192.747 Y159.035 E.12446
G1 X149.035 Y202.747 E6.47669
G1 X147.847 Y202.747 E.12446
G1 X192.747 Y157.847 E6.6527
M73 P18 R7
G1 X192.747 Y157.253 E.06223
G1 X192.153 Y157.253 E.06223
G1 X147.253 Y202.153 E6.65269
G1 X147.253 Y200.965 E.12446
G1 X190.965 Y157.253 E6.47668
G1 X189.777 Y157.253 E.12446
G1 X147.253 Y199.777 E6.30066
G1 X147.253 Y198.589 E.12446
G1 X188.589 Y157.253 E6.12465
G1 X187.401 Y157.253 E.12446
G1 X147.253 Y197.401 E5.94864
G1 X147.253 Y196.213 E.12446
G1 X186.213 Y157.253 E5.77262
G1 X185.025 Y157.253 E.12446
M73 P19 R7
G1 X147.253 Y195.025 E5.59661
G1 X147.253 Y193.837 E.12446
G1 X183.837 Y157.253 E5.4206
G1 X182.65 Y157.253 E.12446
G1 X147.253 Y192.65 E5.24459
G1 X147.253 Y191.462 E.12446
G1 X181.462 Y157.253 E5.06857
G1 X180.274 Y157.253 E.12446
G1 X147.253 Y190.274 E4.89256
G1 X147.253 Y189.086 E.12446
G1 X179.086 Y157.253 E4.71655
G1 X177.898 Y157.253 E.12446
G1 X147.253 Y187.898 E4.54053
G1 X147.253 Y186.71 E.12446
G1 X176.71 Y157.253 E4.36452
G1 X175.522 Y157.253 E.12446
G1 X147.253 Y185.522 E4.18851
G1 X147.253 Y184.334 E.12446
G1 X174.334 Y157.253 E4.01249
G1 X173.146 Y157.253 E.12446
G1 X147.253 Y183.146 E3.83648
G1 X147.253 Y181.958 E.12446
G1 X171.958 Y157.253 E3.66047
G1 X170.77 Y157.253 E.12446
M73 P20 R7
G1 X147.253 Y180.77 E3.48445
G1 X147.253 Y179.582 E.12446
G1 X169.582 Y157.253 E3.30844
G1 X168.394 Y157.253 E.12446
G1 X147.253 Y178.394 E3.13243
G1 X147.253 Y177.206 E.12446
G1 X167.206 Y157.253 E2.95642
G1 X166.018 Y157.253 E.12446
G1 X147.253 Y176.018 E2.7804
G1 X147.253 Y174.83 E.12446
G1 X164.83 Y157.253 E2.60439
G1 X163.642 Y157.253 E.12446
G1 X147.253 Y173.642 E2.42838
G1 X147.253 Y172.455 E.12446
G1 X162.455 Y157.253 E2.25236
G1 X161.267 Y157.253 E.12446
G1 X147.253 Y171.267 E2.07635
G1 X147.253 Y170.079 E.12446
G1 X160.079 Y157.253 E1.90034
G1 X158.891 Y157.253 E.12446
G1 X147.253 Y168.891 E1.72432
G1 X147.253 Y167.703 E.12446
G1 X157.703 Y157.253 E1.54831
G1 X156.515 Y157.253 E.12446
G1 X147.253 Y166.515 E1.3723
G1 X147.253 Y165.327 E.12446
G1 X155.327 Y157.253 E1.19628
G1 X154.139 Y157.253 E.12446
G1 X147.253 Y164.139 E1.02027
G1 X147.253 Y162.951 E.12446
G1 X152.951 Y157.253 E.84426
G1 X151.763 Y157.253 E.12446
G1 X147.253 Y161.763 E.66825
G1 X147.253 Y160.575 E.12446
G1 X150.575 Y157.253 E.49223
G1 X149.387 Y157.253 E.12446
G1 X147.253 Y159.387 E.31622
G1 X147.253 Y158.199 E.12446
G1 X148.575 Y156.877 E.19592
M204 S4000
SET_VELOCITY_LIMIT SQUARE_CORNER_VELOCITY=1
; stop printing object Cube id:0 copy 0
EXCLUDE_OBJECT_END NAME=Cube_id_0_copy_0
;LAYER_CHANGE
;Z:0.9
;HEIGHT:0.3
;BEFORE_LAYER_CHANGE
;0.9
G92 E0

;AFTER_LAYER_CHANGE
;0.9
; printing object Cube id:0 copy 0
EXCLUDE_OBJECT_START NAME=Cube_id_0_copy_0
M204 S10000
SET_VELOCITY_LIMIT SQUARE_CORNER_VELOCITY=9
G1 E-.7 F1800
G1 Z.8 F27000
G1 X193.329 Y203.329 Z.9
G1 E.7 F1800
M204 S2000
SET_VELOCITY_LIMIT SQUARE_CORNER_VELOCITY=1
;TYPE:Inner wall
;WIDTH:0.72
G1 F7626.381
G1 X146.671 Y203.329 E3.8153
G1 X146.671 Y156.671 E3.8153
G1 X193.329 Y156.671 E3.8153
M73 P21 R7
G1 X193.329 Y180 E1.90765
G1 X193.329 Y203.239 E1.90029
M204 S4000
M204 S10000
SET_VELOCITY_LIMIT SQUARE_CORNER_VELOCITY=9
G1 X193.984 Y203.984 F27000
M204 S2000
SET_VELOCITY_LIMIT SQUARE_CORNER_VELOCITY=1
G1 F7626.381
G1 X146.016 Y203.984 E3.92252
G1 X146.016 Y156.016 E3.92252
G1 X193.984 Y156.016 E3.92252
G1 X193.984 Y180 E1.96126
G1 X193.984 Y203.894 E1.9539
M204 S4000
M204 S10000
SET_VELOCITY_LIMIT SQUARE_CORNER_VELOCITY=9
G1 X194.64 Y204.64 F27000
M204 S1000
SET_VELOCITY_LIMIT SQUARE_CORNER_VELOCITY=1
;TYPE:Outer wall
G1 F4800
G1 X145.36 Y204.64 E4.02974
G1 X145.36 Y155.36 E4.02974
G1 X194.64 Y155.36 E4.02974
G1 X194.64 Y180 E2.01487
G1 X194.64 Y204.55 E2.00751
G1 X194.536 Y204.58
M204 S4000
M204 S10000
SET_VELOCITY_LIMIT SQUARE_CORNER_VELOCITY=9
G1 E-.7 F1800
G1 Z1.1 F27000
G1 X192.541 Y202.747
G1 Z.9
G1 E.7 F1800
M204 S7000
;TYPE:Sparse infill
;WIDTH:0.9
G1 F5983.585
G1 X189.199 Y202.747 E.34836
G1 X192.747 Y189.506 E1.42875
G1 X192.747 Y187.54 E.20483
G1 X147.253 Y199.73 E4.9088
M73 P22 R7
G1 X147.253 Y200.668 E.09776
G1 X149.332 Y202.747 E.30639
G1 X150.27 Y202.747 E.09776
G1 X162.46 Y157.253 E4.9088
G1 X160.494 Y157.253 E.20483
G1 X147.253 Y160.801 E1.42875
G1 X147.253 Y157.253 E.36979
G1 X148.153 Y157.253 E.0938
G1 X192.747 Y201.847 E6.57289
G1 X192.747 Y200.517 E.13865
G1 X184.423 Y202.747 E.89813
G1 X184.784 Y202.747 E.03759
G1 X147.253 Y165.216 E5.53183
G1 X147.253 Y165.577 E.03759
G1 X149.483 Y157.253 E.89813
G1 X152.826 Y157.253 E.34836
M204 S4000
SET_VELOCITY_LIMIT SQUARE_CORNER_VELOCITY=1
M204 S10000
SET_VELOCITY_LIMIT SQUARE_CORNER_VELOCITY=9
G1 X162.878 Y157.253 F27000
M204 S7000
G1 F5983.585
G1 X165.879 Y157.253 E.31283
G1 X192.747 Y184.121 E3.96016
G1 X192.747 Y181.052 E.31985
G1 X147.253 Y193.242 E4.9088
G1 X147.253 Y191.805 E.14975
G1 X158.195 Y202.747 E1.61275
G1 X156.758 Y202.747 E.14975
G1 X168.948 Y157.253 E4.9088
